X:5258
T:Pride of Petravore, The
O:england
R:hornpipe
D:De Dannan: Ballroom
M:C|
K:Em
B,2|EDEF GFGA|BcBA G2E2|D2DE FEFG|ABAG FEDF|
EDEF GFGA|BcBA G2GA|B2Bc BAFG|E2ED E2:|
|:z2|+e2c2++e2c2+ +e3c3+e|dBGA B3c|BAFE FGAB|AGED E2 (3FGA|
Bdef g2ge|dBGA B3A|B2Bc BAFG|E2ED E2:|


